src/16/actions/help-whatsthis.svg

<svg xmlns="http://www.w3.org/2000/svg" viewBox="0 0 16 16">
  <defs id="defs3051">
    <style type="text/css" id="current-color-scheme">
      .ColorScheme-Text {
        color:#5d656b;
      }
      </style>
  </defs>
 <path style="fill:currentColor;fill-opacity:1;stroke:none" 
     d="M 7.5 3.0058594 C 4.4625 3.0058594 2 5.4664063 2 8.5039062 C 2 11.541406 4.4625 14.003906 7.5 14.003906 C 7.66875 14.003906 7.835 13.993516 8 13.978516 L 8 12.953125 C 7.8335 12.971875 7.67175 13.003906 7.5 13.003906 C 5.0145 13.003906 3 10.989406 3 8.5039062 C 3 6.0184062 5.0145 4.0039062 7.5 4.0039062 C 9.9855 4.0039062 12 6.0184062 12 8.5039062 C 12 8.6756562 11.967969 8.8393594 11.949219 9.0058594 L 12.974609 9.0058594 C 12.989609 8.8408594 13 8.6726563 13 8.5039062 C 13 5.4664063 10.5375 3.0058594 7.5 3.0058594 z M 7 5.0058594 L 7 6.0058594 L 8 6.0058594 L 8 5.0058594 L 7 5.0058594 z M 7 7.0058594 L 7 12.005859 L 8 12.005859 L 8 7.0058594 L 7 7.0058594 z M 8.9960938 8 L 9 15 L 11 12 L 14 12 L 8.9980469 8 L 8.9960938 8 z "
     class="ColorScheme-Text"
     />
</svg>

<svg xmlns="http://www.w3.org/2000/svg" viewBox="0 0 16 16"><path d="M7.5 3.006A5.498 5.498 0 1 0 8 13.979v-1.026c-.167.019-.328.05-.5.05a4.5 4.5 0 1 1 4.5-4.5c0 .173-.032.336-.05.503h1.025a5.498 5.498 0 0 0-5.475-6zm-.5 2v1h1v-1H7zm0 2v5h1v-5H7zM8.996 8L9 15l2-3h3L8.998 8h-.002z" fill="currentColor" color="#5d656b"/></svg>
